Papirus/64x64/apps/org.horizon_eda.HorizonEDA.svg

<svg xmlns="http://www.w3.org/2000/svg" width="64" height="64" version="1.1">
 <circle style="opacity:0.2" class="st1" cx="32" cy="33" r="28"/>
 <circle style="fill:#3f3f3f" class="st1" cx="32" cy="32" r="28"/>
 <path style="opacity:0.2" class="st2" d="m 32,20 a 7,7 0 0 0 -7,7 7,7 0 0 0 7,7 7,7 0 0 0 7,-7 7,7 0 0 0 -7,-7 z M 8.5898438,38 a 24,24 0 0 0 0.84375,3 H 54.566406 a 24,24 0 0 0 0.84375,-3 z m 2.1406252,6 a 24,24 0 0 0 2.595703,4 h 37.347656 a 24,24 0 0 0 2.595703,-4 z m 5.414062,7 A 24,24 0 0 0 32,57 24,24 0 0 0 47.855469,51 Z"/>
 <circle style="fill:#54b6ff" class="st2" cx="32" cy="26" r="7"/>
 <path style="fill:#e5e5e5" d="M 8.5898438 37 A 24 24 0 0 0 9.4335938 40 L 54.566406 40 A 24 24 0 0 0 55.410156 37 L 8.5898438 37 z M 10.730469 43 A 24 24 0 0 0 13.326172 47 L 50.673828 47 A 24 24 0 0 0 53.269531 43 L 10.730469 43 z M 16.144531 50 A 24 24 0 0 0 32 56 A 24 24 0 0 0 47.855469 50 L 16.144531 50 z"/>
 <path style="fill:#ffffff;opacity:0.1" class="st1" d="M 32 4 A 28 28 0 0 0 4 32 A 28 28 0 0 0 4.0351562 32.5 A 28 28 0 0 1 32 5 A 28 28 0 0 1 59.982422 32.251953 A 28 28 0 0 0 60 32 A 28 28 0 0 0 32 4 z"/>
 <path style="fill:#ffffff;opacity:0.2" class="st2" d="M 32 19 A 7 7 0 0 0 25 26 A 7 7 0 0 0 25.056641 26.5 A 7 7 0 0 1 32 20 A 7 7 0 0 1 38.962891 26.320312 A 7 7 0 0 0 39 26 A 7 7 0 0 0 32 19 z M 8.5898438 37 A 24 24 0 0 0 8.8710938 38 L 55.128906 38 A 24 24 0 0 0 55.410156 37 L 8.5898438 37 z M 10.730469 43 A 24 24 0 0 0 11.310547 44 L 52.689453 44 A 24 24 0 0 0 53.269531 43 L 10.730469 43 z M 16.144531 50 A 24 24 0 0 0 17.425781 51 L 46.574219 51 A 24 24 0 0 0 47.855469 50 L 16.144531 50 z"/>
</svg>

<?xml version="1.0" encoding="UTF-8" standalone="no"?>
<svg
   id="_图层_1"
   version="1.1"
   viewBox="0 0 64 64" width="64" height="64"
   sodipodi:docname="org.horizon_eda.HorizonEDA.svg"
   xml:space="preserve"
   inkscape:version="1.4 (e7c3feb100, 2024-10-09)"
   xmlns:inkscape="http://www.inkscape.org/namespaces/inkscape"
   xmlns:sodipodi="http://sodipodi.sourceforge.net/DTD/sodipodi-0.dtd"
   xmlns="http://www.w3.org/2000/svg"
   xmlns:svg="http://www.w3.org/2000/svg"><sodipodi:namedview
     id="namedview26"
     pagecolor="#505050"
     bordercolor="#eeeeee"
     borderopacity="1"
     inkscape:showpageshadow="0"
     inkscape:pageopacity="0"
     inkscape:pagecheckerboard="0"
     inkscape:deskcolor="#505050"
     inkscape:zoom="10.6875"
     inkscape:cx="32"
     inkscape:cy="24.51462"
     inkscape:window-width="1920"
     inkscape:window-height="939"
     inkscape:window-x="0"
     inkscape:window-y="34"
     inkscape:window-maximized="1"
     inkscape:current-layer="_图层_1"
     showguides="true"><sodipodi:guide
       position="24.129209,43.688782"
       orientation="1,0"
       id="guide47"
       inkscape:locked="false" /><sodipodi:guide
       position="39.990611,54.528988"
       orientation="1,0"
       id="guide48"
       inkscape:locked="false" /><sodipodi:guide
       position="31.294665,46.979418"
       orientation="0,-1"
       id="guide49"
       inkscape:locked="false" /><sodipodi:guide
       position="22.407535,30.743878"
       orientation="0,-1"
       id="guide50"
       inkscape:locked="false" /></sodipodi:namedview><!-- Generator: Adobe Illustrator 29.0.1, SVG Export Plug-In . SVG Version: 2.1.0 Build 192)  --><defs
     id="defs6"><style
       id="style1">
      .st0 {
        fill-opacity: .5;
      }

      .st0, .st1, .st2, .st3, .st4, .st5, .st6, .st7 {
        fill: #fff;
      }

      .st8 {
        fill: #133c9a;
      }

      .st2, .st9 {
        display: none;
      }

      .st3 {
        fill-opacity: .2;
      }

      .st4 {
        fill-opacity: .9;
      }

      .st10 {
        fill: #3370ff;
      }

      .st11 {
        fill: url(#_未命名的渐变_3);
      }

      .st12 {
        fill: url(#_未命名的渐变);
      }

      .st5 {
        fill-opacity: .3;
      }

      .st6 {
        fill-opacity: 0;
      }

      .st7 {
        fill-opacity: .7;
      }

      .st13 {
        fill: #00d6b9;
      }

      .st14 {
        fill: url(#_未命名的渐变_2);
      }
    </style><radialGradient
       id="_未命名的渐变"
       data-name="未命名的渐变"
       cx="123.9"
       cy="-40.2"
       fx="123.9"
       fy="-40.2"
       r="59.4"
       gradientTransform="translate(-26.8 25.5) scale(.6 -.7)"
       gradientUnits="userSpaceOnUse"><stop
         offset="0"
         stop-color="#db202e"
         id="stop1" /><stop
         offset="1"
         stop-color="#e01b24"
         id="stop2" /></radialGradient><radialGradient
       id="_未命名的渐变_2"
       data-name="未命名的渐变 2"
       cx="67.6"
       cy="26.8"
       fx="67.6"
       fy="26.8"
       r="105.2"
       gradientTransform="translate(-26.6 25.3) scale(.6 -.7)"
       gradientUnits="userSpaceOnUse"><stop
         offset="0"
         stop-color="#ffb648"
         id="stop3" /><stop
         offset="1"
         stop-color="#ff7800"
         stop-opacity="0"
         id="stop4" /></radialGradient><radialGradient
       id="_未命名的渐变_3"
       data-name="未命名的渐变 3"
       cx="61.7"
       cy="18.6"
       fx="61.7"
       fy="18.6"
       r="68"
       gradientTransform="translate(-26.8 25.8) scale(.6 -.7)"
       gradientUnits="userSpaceOnUse"><stop
         offset="0"
         stop-color="#c64600"
         id="stop5" /><stop
         offset="1"
         stop-color="#a51d2d"
         id="stop6" /></radialGradient></defs><path
     class="st1"
     d="M47.5,64.1H13.8c-7.6,0-13.8-6.3-13.8-13.8V13.7C0,6.2,6.2,0,13.7,0h36.6c7.5,0,13.7,6.2,13.7,13.7v36.6c0,7.5-6.2,13.7-13.7,13.7h-2.9.1Z"
     id="path6"
     style="fill:#3f3f3f;fill-opacity:1" /><g
     id="g47"
     transform="matrix(1.1420217,0,0,1.1444547,-4.4979115,-4.6333744)"><path
       style="opacity:0.2"
       class="st2"
       d="m 32,20 a 7,7 0 0 0 -7,7 7,7 0 0 0 7,7 7,7 0 0 0 7,-7 7,7 0 0 0 -7,-7 z M 8.5898438,38 a 24,24 0 0 0 0.84375,3 H 54.566406 a 24,24 0 0 0 0.84375,-3 z m 2.1406252,6 a 24,24 0 0 0 2.595703,4 h 37.347656 a 24,24 0 0 0 2.595703,-4 z m 5.414062,7 A 24,24 0 0 0 32,57 24,24 0 0 0 47.855469,51 Z"
       id="path2-4" /><path
       style="fill:#e5e5e5"
       d="m 8.5898438,37 a 24,24 0 0 0 0.84375,3 H 54.566406 a 24,24 0 0 0 0.84375,-3 z m 2.1406252,6 a 24,24 0 0 0 2.595703,4 h 37.347656 a 24,24 0 0 0 2.595703,-4 z m 5.414062,7 A 24,24 0 0 0 32,56 24,24 0 0 0 47.855469,50 Z"
       id="path3-7" /><path
       style="opacity:0.2;fill:#ffffff"
       class="st2"
       d="m 32,19 a 7,7 0 0 0 -7,7 7,7 0 0 0 0.05664,0.5 A 7,7 0 0 1 32,20 7,7 0 0 1 38.962891,26.320312 7,7 0 0 0 39,26 7,7 0 0 0 32,19 Z M 8.5898438,37 a 24,24 0 0 0 0.28125,1 H 55.128906 a 24,24 0 0 0 0.28125,-1 z m 2.1406252,6 a 24,24 0 0 0 0.580078,1 h 41.378906 a 24,24 0 0 0 0.580078,-1 z m 5.414062,7 a 24,24 0 0 0 1.28125,1 h 29.148438 a 24,24 0 0 0 1.28125,-1 z"
       id="path5-5" /></g><ellipse
     style="fill:#54b6ff;fill-opacity:1;stroke-width:0;paint-order:markers fill stroke"
     id="path47"
     cx="31.953217"
     cy="25.216373"
     rx="7.9064326"
     ry="8.0935678" /></svg>
